images/content/johnson-solids/square-orthobicupola.svg

<?xml version="1.0" encoding="UTF-8"?>
<svg xmlns="http://www.w3.org/2000/svg" xmlns:xlink="http://www.w3.org/1999/xlink" width="267pt" height="199pt" viewBox="0 0 267 199" version="1.2">
<g id="surface1">
<path style="fill-rule:nonzero;fill:rgb(75.389099%,35.205078%,29.00238%);fill-opacity:1;stroke-width:8.74;stroke-linecap:round;stroke-linejoin:round;stroke:rgb(0%,0%,0%);stroke-opacity:1;stroke-miterlimit:10;" d="M 1168.085938 1438.125 L 374.101562 1279.375 L 680.703125 1746.367188 " transform="matrix(0.1,0,0,-0.1,0,199)"/>
<path style="fill-rule:nonzero;fill:rgb(75.389099%,35.205078%,29.00238%);fill-opacity:1;stroke-width:8.74;stroke-linecap:round;stroke-linejoin:round;stroke:rgb(0%,0%,0%);stroke-opacity:1;stroke-miterlimit:10;" d="M 680.703125 1746.367188 L 1512.65625 1896.796875 L 1168.085938 1438.125 " transform="matrix(0.1,0,0,-0.1,0,199)"/>
<path style=" stroke:none;fill-rule:nonzero;fill:rgb(63.084412%,34.692383%,46.897888%);fill-opacity:1;" d="M 151.265625 9.320312 L 205.117188 61.390625 L 116.808594 55.1875 "/>
<path style="fill:none;stroke-width:8.74;stroke-linecap:round;stroke-linejoin:round;stroke:rgb(0%,0%,0%);stroke-opacity:1;stroke-miterlimit:10;" d="M 1512.65625 1896.796875 L 2051.171875 1376.09375 L 1168.085938 1438.125 Z M 1512.65625 1896.796875 " transform="matrix(0.1,0,0,-0.1,0,199)"/>
<path style=" stroke:none;fill-rule:nonzero;fill:rgb(67.771912%,58.789062%,74.609375%);fill-opacity:1;" d="M 151.023438 133.964844 L 116.808594 55.1875 L 205.117188 61.390625 "/>
<path style="fill:none;stroke-width:8.74;stroke-linecap:round;stroke-linejoin:round;stroke:rgb(0%,0%,0%);stroke-opacity:1;stroke-miterlimit:10;" d="M 1510.234375 650.351562 L 1168.085938 1438.125 L 2051.171875 1376.09375 Z M 1510.234375 650.351562 " transform="matrix(0.1,0,0,-0.1,0,199)"/>
<path style="fill-rule:nonzero;fill:rgb(76.951599%,69.53125%,78.125%);fill-opacity:1;stroke-width:8.74;stroke-linecap:round;stroke-linejoin:round;stroke:rgb(0%,0%,0%);stroke-opacity:1;stroke-miterlimit:10;" d="M 374.101562 1279.375 L 1168.085938 1438.125 L 1510.234375 650.351562 " transform="matrix(0.1,0,0,-0.1,0,199)"/>
<path style="fill-rule:nonzero;fill:rgb(9.106445%,0%,0%);fill-opacity:1;stroke-width:8.74;stroke-linecap:round;stroke-linejoin:round;stroke:rgb(0%,0%,0%);stroke-opacity:1;stroke-miterlimit:10;" d="M 2608.632812 1114.179688 L 2051.171875 1376.09375 L 1512.65625 1896.796875 " transform="matrix(0.1,0,0,-0.1,0,199)"/>
<path style="fill-rule:nonzero;fill:rgb(53.90625%,54.296875%,80.664062%);fill-opacity:1;stroke-width:8.74;stroke-linecap:round;stroke-linejoin:round;stroke:rgb(0%,0%,0%);stroke-opacity:1;stroke-miterlimit:10;" d="M 2051.171875 1376.09375 L 2608.632812 1114.179688 L 2038.359375 340.3125 " transform="matrix(0.1,0,0,-0.1,0,199)"/>
<path style="fill-rule:nonzero;fill:rgb(53.90625%,54.296875%,80.664062%);fill-opacity:1;stroke-width:8.74;stroke-linecap:round;stroke-linejoin:round;stroke:rgb(0%,0%,0%);stroke-opacity:1;stroke-miterlimit:10;" d="M 2038.359375 340.3125 L 1510.234375 650.351562 L 2051.171875 1376.09375 " transform="matrix(0.1,0,0,-0.1,0,199)"/>
<path style="fill-rule:nonzero;fill:rgb(76.951599%,69.53125%,78.125%);fill-opacity:1;stroke-width:8.74;stroke-linecap:round;stroke-linejoin:round;stroke:rgb(0%,0%,0%);stroke-opacity:1;stroke-miterlimit:10;" d="M 1510.234375 650.351562 L 710.46875 456.796875 L 374.101562 1279.375 " transform="matrix(0.1,0,0,-0.1,0,199)"/>
<path style="fill-rule:nonzero;fill:rgb(62.304688%,78.125%,95.701599%);fill-opacity:1;stroke-width:8.74;stroke-linecap:round;stroke-linejoin:round;stroke:rgb(0%,0%,0%);stroke-opacity:1;stroke-miterlimit:10;" d="M 710.46875 456.796875 L 1510.234375 650.351562 L 2038.359375 340.3125 " transform="matrix(0.1,0,0,-0.1,0,199)"/>
<path style=" stroke:none;fill-rule:nonzero;fill:rgb(69.726562%,22.900391%,0%);fill-opacity:1;" d="M 68.070312 24.363281 L 37.410156 71.0625 L 7.855469 103.207031 "/>
<path style="fill:none;stroke-width:8.74;stroke-linecap:round;stroke-linejoin:round;stroke:rgb(0%,0%,0%);stroke-opacity:1;stroke-miterlimit:10;" d="M 680.703125 1746.367188 L 374.101562 1279.375 L 78.554688 957.929688 Z M 680.703125 1746.367188 " transform="matrix(0.1,0,0,-0.1,0,199)"/>
<path style=" stroke:none;fill-rule:nonzero;fill:rgb(89.84375%,86.326599%,79.492188%);fill-opacity:1;" d="M 71.046875 153.320312 L 7.855469 103.207031 L 37.410156 71.0625 "/>
<path style="fill:none;stroke-width:8.74;stroke-linecap:round;stroke-linejoin:round;stroke:rgb(0%,0%,0%);stroke-opacity:1;stroke-miterlimit:10;" d="M 710.46875 456.796875 L 78.554688 957.929688 L 374.101562 1279.375 Z M 710.46875 456.796875 " transform="matrix(0.1,0,0,-0.1,0,199)"/>
<path style="fill-rule:nonzero;fill:rgb(9.106445%,0%,0%);fill-opacity:1;stroke-width:8.74;stroke-linecap:round;stroke-linejoin:round;stroke:rgb(0%,0%,0%);stroke-opacity:1;stroke-miterlimit:10;" d="M 1512.65625 1896.796875 L 2062.773438 1655.898438 L 2608.632812 1114.179688 " transform="matrix(0.1,0,0,-0.1,0,199)"/>
<path style="fill-rule:nonzero;fill:rgb(56.639099%,80.859375%,99.021912%);fill-opacity:1;stroke-width:8.74;stroke-linecap:round;stroke-linejoin:round;stroke:rgb(0%,0%,0%);stroke-opacity:1;stroke-miterlimit:10;" d="M 1512.65625 1896.796875 L 680.703125 1746.367188 L 1197.8125 1484.609375 " transform="matrix(0.1,0,0,-0.1,0,199)"/>
<path style="fill-rule:nonzero;fill:rgb(56.639099%,80.859375%,99.021912%);fill-opacity:1;stroke-width:8.74;stroke-linecap:round;stroke-linejoin:round;stroke:rgb(0%,0%,0%);stroke-opacity:1;stroke-miterlimit:10;" d="M 1197.8125 1484.609375 L 2062.773438 1655.898438 L 1512.65625 1896.796875 " transform="matrix(0.1,0,0,-0.1,0,199)"/>
<path style="fill-rule:nonzero;fill:rgb(0%,0%,0%);fill-opacity:1;stroke-width:8.74;stroke-linecap:round;stroke-linejoin:round;stroke:rgb(0%,0%,0%);stroke-opacity:1;stroke-miterlimit:10;" d="M 558.867188 639.140625 L 78.554688 957.929688 L 710.46875 456.796875 " transform="matrix(0.1,0,0,-0.1,0,199)"/>
<path style="fill-rule:nonzero;fill:rgb(62.304688%,78.125%,95.701599%);fill-opacity:1;stroke-width:8.74;stroke-linecap:round;stroke-linejoin:round;stroke:rgb(0%,0%,0%);stroke-opacity:1;stroke-miterlimit:10;" d="M 2038.359375 340.3125 L 1208.164062 121.054688 L 710.46875 456.796875 " transform="matrix(0.1,0,0,-0.1,0,199)"/>
<path style="fill-rule:nonzero;fill:rgb(0%,0%,0%);fill-opacity:1;stroke-width:8.74;stroke-linecap:round;stroke-linejoin:round;stroke:rgb(0%,0%,0%);stroke-opacity:1;stroke-miterlimit:10;" d="M 710.46875 456.796875 L 1208.164062 121.054688 L 558.867188 639.140625 " transform="matrix(0.1,0,0,-0.1,0,199)"/>
<path style=" stroke:none;fill-rule:nonzero;fill:rgb(0%,14.598083%,68.943787%);fill-opacity:1;" d="M 203.835938 164.96875 L 260.863281 87.582031 L 247.527344 122.359375 "/>
<path style="fill:none;stroke-width:8.74;stroke-linecap:round;stroke-linejoin:round;stroke:rgb(0%,0%,0%);stroke-opacity:1;stroke-miterlimit:10;" d="M 2038.359375 340.3125 L 2608.632812 1114.179688 L 2475.273438 766.40625 Z M 2038.359375 340.3125 " transform="matrix(0.1,0,0,-0.1,0,199)"/>
<path style=" stroke:none;fill-rule:nonzero;fill:rgb(92.96875%,93.554688%,78.514099%);fill-opacity:1;" d="M 206.277344 33.410156 L 247.527344 122.359375 L 260.863281 87.582031 "/>
<path style="fill:none;stroke-width:8.74;stroke-linecap:round;stroke-linejoin:round;stroke:rgb(0%,0%,0%);stroke-opacity:1;stroke-miterlimit:10;" d="M 2062.773438 1655.898438 L 2475.273438 766.40625 L 2608.632812 1114.179688 Z M 2062.773438 1655.898438 " transform="matrix(0.1,0,0,-0.1,0,199)"/>
<path style="fill-rule:nonzero;fill:rgb(71.679688%,23.094177%,9.495544%);fill-opacity:1;stroke-width:8.74;stroke-linecap:round;stroke-linejoin:round;stroke:rgb(0%,0%,0%);stroke-opacity:1;stroke-miterlimit:10;" d="M 1208.164062 121.054688 L 2038.359375 340.3125 L 2475.273438 766.40625 " transform="matrix(0.1,0,0,-0.1,0,199)"/>
<path style="fill-rule:nonzero;fill:rgb(49.291992%,52.929688%,82.226562%);fill-opacity:1;stroke-width:8.74;stroke-linecap:round;stroke-linejoin:round;stroke:rgb(0%,0%,0%);stroke-opacity:1;stroke-miterlimit:10;" d="M 1197.8125 1484.609375 L 680.703125 1746.367188 L 78.554688 957.929688 " transform="matrix(0.1,0,0,-0.1,0,199)"/>
<path style="fill-rule:nonzero;fill:rgb(49.291992%,52.929688%,82.226562%);fill-opacity:1;stroke-width:8.74;stroke-linecap:round;stroke-linejoin:round;stroke:rgb(0%,0%,0%);stroke-opacity:1;stroke-miterlimit:10;" d="M 78.554688 957.929688 L 558.867188 639.140625 L 1197.8125 1484.609375 " transform="matrix(0.1,0,0,-0.1,0,199)"/>
<path style="fill-rule:nonzero;fill:rgb(77.734375%,71.679688%,79.492188%);fill-opacity:1;stroke-width:8.74;stroke-linecap:round;stroke-linejoin:round;stroke:rgb(0%,0%,0%);stroke-opacity:1;stroke-miterlimit:10;" d="M 1604.921875 550.46875 L 2475.273438 766.40625 L 2062.773438 1655.898438 " transform="matrix(0.1,0,0,-0.1,0,199)"/>
<path style="fill-rule:nonzero;fill:rgb(77.734375%,71.679688%,79.492188%);fill-opacity:1;stroke-width:8.74;stroke-linecap:round;stroke-linejoin:round;stroke:rgb(0%,0%,0%);stroke-opacity:1;stroke-miterlimit:10;" d="M 2062.773438 1655.898438 L 1197.8125 1484.609375 L 1604.921875 550.46875 " transform="matrix(0.1,0,0,-0.1,0,199)"/>
<path style=" stroke:none;fill-rule:nonzero;fill:rgb(59.568787%,26.805115%,38.597107%);fill-opacity:1;" d="M 120.816406 186.894531 L 160.492188 143.953125 L 55.886719 135.085938 "/>
<path style="fill:none;stroke-width:8.74;stroke-linecap:round;stroke-linejoin:round;stroke:rgb(0%,0%,0%);stroke-opacity:1;stroke-miterlimit:10;" d="M 1208.164062 121.054688 L 1604.921875 550.46875 L 558.867188 639.140625 Z M 1208.164062 121.054688 " transform="matrix(0.1,0,0,-0.1,0,199)"/>
<path style="fill-rule:nonzero;fill:rgb(71.679688%,23.094177%,9.495544%);fill-opacity:1;stroke-width:8.74;stroke-linecap:round;stroke-linejoin:round;stroke:rgb(0%,0%,0%);stroke-opacity:1;stroke-miterlimit:10;" d="M 2475.273438 766.40625 L 1604.921875 550.46875 L 1208.164062 121.054688 " transform="matrix(0.1,0,0,-0.1,0,199)"/>
<path style=" stroke:none;fill-rule:nonzero;fill:rgb(67.1875%,58.789062%,75.389099%);fill-opacity:1;" d="M 119.78125 50.539062 L 55.886719 135.085938 L 160.492188 143.953125 "/>
<path style="fill:none;stroke-width:8.74;stroke-linecap:round;stroke-linejoin:round;stroke:rgb(0%,0%,0%);stroke-opacity:1;stroke-miterlimit:10;" d="M 1197.8125 1484.609375 L 558.867188 639.140625 L 1604.921875 550.46875 Z M 1197.8125 1484.609375 " transform="matrix(0.1,0,0,-0.1,0,199)"/>
</g>
</svg>

<svg xmlns="http://www.w3.org/2000/svg" width="356" height="199pt" viewBox="0 0 267 199" version="1.2"><path style="fill-rule:nonzero;fill:#c05a4a;fill-opacity:1;stroke-width:8.74;stroke-linecap:round;stroke-linejoin:round;stroke:#000;stroke-opacity:1;stroke-miterlimit:10" d="m1168.086 1438.125-793.984-158.75 306.601 466.992" transform="matrix(.1 0 0 -.1 0 199)"/><path style="fill-rule:nonzero;fill:#c05a4a;fill-opacity:1;stroke-width:8.74;stroke-linecap:round;stroke-linejoin:round;stroke:#000;stroke-opacity:1;stroke-miterlimit:10" d="m680.703 1746.367 831.953 150.43-344.57-458.672" transform="matrix(.1 0 0 -.1 0 199)"/><path style="stroke:none;fill-rule:nonzero;fill:#a15878;fill-opacity:1" d="m151.266 9.32 53.851 52.07-88.308-6.203"/><path style="fill:none;stroke-width:8.74;stroke-linecap:round;stroke-linejoin:round;stroke:#000;stroke-opacity:1;stroke-miterlimit:10" d="m1512.656 1896.797 538.516-520.703-883.086 62.031Zm0 0" transform="matrix(.1 0 0 -.1 0 199)"/><path style="stroke:none;fill-rule:nonzero;fill:#ad96be;fill-opacity:1" d="M151.023 133.965 116.81 55.187l88.308 6.204"/><path style="fill:none;stroke-width:8.74;stroke-linecap:round;stroke-linejoin:round;stroke:#000;stroke-opacity:1;stroke-miterlimit:10" d="m1510.234 650.352-342.148 787.773 883.086-62.031Zm0 0" transform="matrix(.1 0 0 -.1 0 199)"/><path style="fill-rule:nonzero;fill:#c4b1c7;fill-opacity:1;stroke-width:8.74;stroke-linecap:round;stroke-linejoin:round;stroke:#000;stroke-opacity:1;stroke-miterlimit:10" d="m374.102 1279.375 793.984 158.75 342.148-787.773" transform="matrix(.1 0 0 -.1 0 199)"/><path style="fill-rule:nonzero;fill:#170000;fill-opacity:1;stroke-width:8.74;stroke-linecap:round;stroke-linejoin:round;stroke:#000;stroke-opacity:1;stroke-miterlimit:10" d="m2608.633 1114.18-557.461 261.914-538.516 520.703" transform="matrix(.1 0 0 -.1 0 199)"/><path style="fill-rule:nonzero;fill:#898ace;fill-opacity:1;stroke-width:8.74;stroke-linecap:round;stroke-linejoin:round;stroke:#000;stroke-opacity:1;stroke-miterlimit:10" d="m2051.172 1376.094 557.46-261.914-570.273-773.868" transform="matrix(.1 0 0 -.1 0 199)"/><path style="fill-rule:nonzero;fill:#898ace;fill-opacity:1;stroke-width:8.74;stroke-linecap:round;stroke-linejoin:round;stroke:#000;stroke-opacity:1;stroke-miterlimit:10" d="m2038.36 340.313-528.126 310.039 540.938 725.742" transform="matrix(.1 0 0 -.1 0 199)"/><path style="fill-rule:nonzero;fill:#c4b1c7;fill-opacity:1;stroke-width:8.74;stroke-linecap:round;stroke-linejoin:round;stroke:#000;stroke-opacity:1;stroke-miterlimit:10" d="M1510.234 650.352 710.47 456.797l-336.367 822.578" transform="matrix(.1 0 0 -.1 0 199)"/><path style="fill-rule:nonzero;fill:#9fc7f4;fill-opacity:1;stroke-width:8.74;stroke-linecap:round;stroke-linejoin:round;stroke:#000;stroke-opacity:1;stroke-miterlimit:10" d="m710.469 456.797 799.765 193.555 528.125-310.04" transform="matrix(.1 0 0 -.1 0 199)"/><path style="stroke:none;fill-rule:nonzero;fill:#b23a00;fill-opacity:1" d="m68.07 24.363-30.66 46.7-29.555 32.144"/><path style="fill:none;stroke-width:8.74;stroke-linecap:round;stroke-linejoin:round;stroke:#000;stroke-opacity:1;stroke-miterlimit:10" d="m680.703 1746.367-306.601-466.992L78.555 957.93Zm0 0" transform="matrix(.1 0 0 -.1 0 199)"/><path style="stroke:none;fill-rule:nonzero;fill:#e5dccb;fill-opacity:1" d="M71.047 153.32 7.855 103.207 37.41 71.063"/><path style="fill:none;stroke-width:8.74;stroke-linecap:round;stroke-linejoin:round;stroke:#000;stroke-opacity:1;stroke-miterlimit:10" d="M710.469 456.797 78.555 957.93l295.547 321.445Zm0 0" transform="matrix(.1 0 0 -.1 0 199)"/><path style="fill-rule:nonzero;fill:#170000;fill-opacity:1;stroke-width:8.74;stroke-linecap:round;stroke-linejoin:round;stroke:#000;stroke-opacity:1;stroke-miterlimit:10" d="m1512.656 1896.797 550.117-240.899 545.86-541.718" transform="matrix(.1 0 0 -.1 0 199)"/><path style="fill-rule:nonzero;fill:#90cefd;fill-opacity:1;stroke-width:8.74;stroke-linecap:round;stroke-linejoin:round;stroke:#000;stroke-opacity:1;stroke-miterlimit:10" d="m1512.656 1896.797-831.953-150.43 517.11-261.758" transform="matrix(.1 0 0 -.1 0 199)"/><path style="fill-rule:nonzero;fill:#90cefd;fill-opacity:1;stroke-width:8.74;stroke-linecap:round;stroke-linejoin:round;stroke:#000;stroke-opacity:1;stroke-miterlimit:10" d="m1197.813 1484.61 864.96 171.288-550.117 240.899" transform="matrix(.1 0 0 -.1 0 199)"/><path style="fill-rule:nonzero;fill:#000;fill-opacity:1;stroke-width:8.74;stroke-linecap:round;stroke-linejoin:round;stroke:#000;stroke-opacity:1;stroke-miterlimit:10" d="M558.867 639.14 78.555 957.93l631.914-501.133" transform="matrix(.1 0 0 -.1 0 199)"/><path style="fill-rule:nonzero;fill:#9fc7f4;fill-opacity:1;stroke-width:8.74;stroke-linecap:round;stroke-linejoin:round;stroke:#000;stroke-opacity:1;stroke-miterlimit:10" d="m2038.36 340.313-830.196-219.258L710.47 456.797" transform="matrix(.1 0 0 -.1 0 199)"/><path style="fill-rule:nonzero;fill:#000;fill-opacity:1;stroke-width:8.74;stroke-linecap:round;stroke-linejoin:round;stroke:#000;stroke-opacity:1;stroke-miterlimit:10" d="m710.469 456.797 497.695-335.742L558.867 639.14" transform="matrix(.1 0 0 -.1 0 199)"/><path style="stroke:none;fill-rule:nonzero;fill:#0025b0;fill-opacity:1" d="m203.836 164.969 57.027-77.387-13.336 34.777"/><path style="fill:none;stroke-width:8.74;stroke-linecap:round;stroke-linejoin:round;stroke:#000;stroke-opacity:1;stroke-miterlimit:10" d="m2038.36 340.313 570.273 773.867-133.36-347.774Zm0 0" transform="matrix(.1 0 0 -.1 0 199)"/><path style="stroke:none;fill-rule:nonzero;fill:#edefc8;fill-opacity:1" d="m206.277 33.41 41.25 88.95 13.336-34.778"/><path style="fill:none;stroke-width:8.74;stroke-linecap:round;stroke-linejoin:round;stroke:#000;stroke-opacity:1;stroke-miterlimit:10" d="m2062.773 1655.898 412.5-889.492 133.36 347.774Zm0 0" transform="matrix(.1 0 0 -.1 0 199)"/><path style="fill-rule:nonzero;fill:#b73b18;fill-opacity:1;stroke-width:8.74;stroke-linecap:round;stroke-linejoin:round;stroke:#000;stroke-opacity:1;stroke-miterlimit:10" d="m1208.164 121.055 830.195 219.257 436.914 426.094" transform="matrix(.1 0 0 -.1 0 199)"/><path style="fill-rule:nonzero;fill:#7e87d2;fill-opacity:1;stroke-width:8.74;stroke-linecap:round;stroke-linejoin:round;stroke:#000;stroke-opacity:1;stroke-miterlimit:10" d="m1197.813 1484.61-517.11 261.757L78.555 957.93" transform="matrix(.1 0 0 -.1 0 199)"/><path style="fill-rule:nonzero;fill:#7e87d2;fill-opacity:1;stroke-width:8.74;stroke-linecap:round;stroke-linejoin:round;stroke:#000;stroke-opacity:1;stroke-miterlimit:10" d="m78.555 957.93 480.312-318.79 638.946 845.47" transform="matrix(.1 0 0 -.1 0 199)"/><path style="fill-rule:nonzero;fill:#c6b7cb;fill-opacity:1;stroke-width:8.74;stroke-linecap:round;stroke-linejoin:round;stroke:#000;stroke-opacity:1;stroke-miterlimit:10" d="m1604.922 550.469 870.351 215.937-412.5 889.492" transform="matrix(.1 0 0 -.1 0 199)"/><path style="fill-rule:nonzero;fill:#c6b7cb;fill-opacity:1;stroke-width:8.74;stroke-linecap:round;stroke-linejoin:round;stroke:#000;stroke-opacity:1;stroke-miterlimit:10" d="m2062.773 1655.898-864.96-171.289 407.109-934.14" transform="matrix(.1 0 0 -.1 0 199)"/><path style="stroke:none;fill-rule:nonzero;fill:#984462;fill-opacity:1" d="m120.816 186.895 39.676-42.942-104.605-8.867"/><path style="fill:none;stroke-width:8.74;stroke-linecap:round;stroke-linejoin:round;stroke:#000;stroke-opacity:1;stroke-miterlimit:10" d="m1208.164 121.055 396.758 429.414L558.867 639.14Zm0 0" transform="matrix(.1 0 0 -.1 0 199)"/><path style="fill-rule:nonzero;fill:#b73b18;fill-opacity:1;stroke-width:8.74;stroke-linecap:round;stroke-linejoin:round;stroke:#000;stroke-opacity:1;stroke-miterlimit:10" d="M2475.273 766.406 1604.922 550.47l-396.758-429.414" transform="matrix(.1 0 0 -.1 0 199)"/><path style="stroke:none;fill-rule:nonzero;fill:#ab96c0;fill-opacity:1" d="m119.781 50.54-63.894 84.546 104.605 8.867"/><path style="fill:none;stroke-width:8.74;stroke-linecap:round;stroke-linejoin:round;stroke:#000;stroke-opacity:1;stroke-miterlimit:10" d="M1197.813 1484.61 558.866 639.14l1046.055-88.671Zm0 0" transform="matrix(.1 0 0 -.1 0 199)"/></svg>
